X: 10
T: Tiao yue ge
L: 1/16
M: 5/4
K: D
F2 F A A2 d2 F2 f A d> f A f z2 f A [I:setbarnb 1]| 
A2 A F F2 D2 F2 f A d> f A f z2 f A | 
F2 d F A2 A2 F2 f A d> f A f z2 f A | 
A2 F A F2 d2 F2 f A d> f A f z2 f A | 
F2 F A F2 d2 F2 f A d> f A f z2 f A | 
A2 A d F2 A2 F2 f A d> f A f z2 f A | 
d2 A d F2 A2 F2 f A d> f A f z2 f A | 
A2 A F F2 d2 F2 f A d> f A f z2 f A | 
A2 A d F2 A2 F2 f A d> f A f z2 f A | 
d2 A d F2 d A d2 f A d> f A f z2 f A | 
A2 A F A2 d2 F2 f A d> f A f z2 f A | 
d2 A d F2 A2 d2 f A d> f A f d2 z2 |]

@@@ Tune index: 8678
